X: 389
T:Highland Laddie
R: Reel
N: page 145
N: hexatonic
M:4/4
L:1/8
K:D major
%
A2 | "D"d3 e f2 f2 | "A"g2 e2 "D"f4 | "A"f2 e2 e2 de | "A"f2 e2 "G"ed B2 | \
"D"d3 e f2 a2 | "A"gfed "D"f2 ef |
%
"Bm"d2 B2 B2 AB | "Bm"d2 B2 B2 fg | "D"a2 gf "G"g2 fe | "D"fede f4 | \
"Em"f2 e2 e2 de |
%
"Em"f2 e2 e2 fg | "D"ag f2 "Em"gf e2 | "D"fede f2 ef | "Bm"d2 B2 B2 AB | \
"Bm"d2 B2 B2 |]
